src/components/00-materials/images-raw/Matchstick.svg

<svg width="96" height="96" viewBox="0 0 96 96" fill="none" xmlns="http://www.w3.org/2000/svg">
<path d="M42.79 42.4499C40.7598 41.6741 39.0236 40.2817 37.8255 38.4683C36.6273 36.6549 36.0274 34.5118 36.11 32.3399C36.11 29.1599 37.74 26.2099 39.34 23.7699C39.39 23.6874 39.4604 23.6191 39.5445 23.5718C39.6286 23.5245 39.7235 23.4998 39.82 23.4999C39.922 23.4955 40.0235 23.516 40.1158 23.5595C40.2082 23.6031 40.2885 23.6684 40.35 23.7499C40.62 24.1099 40.87 24.4999 41.11 24.8899C41.7619 26.065 42.6755 27.0744 43.78 27.8399C43.3742 25.269 43.6669 22.6364 44.6275 20.2174C45.588 17.7984 47.1811 15.6821 49.24 14.0899C49.3387 14.0382 49.4485 14.0112 49.56 14.0112C49.6714 14.0112 49.7812 14.0382 49.88 14.0899C49.9825 14.1379 50.069 14.2142 50.1293 14.31C50.1896 14.4057 50.2211 14.5168 50.22 14.6299C50.16 19.2999 52.22 21.8499 54.22 24.2899C56.02 26.4799 57.87 28.7399 57.87 32.3699C57.9026 34.519 57.2799 36.627 56.0848 38.4134C54.8897 40.1999 53.1789 41.5799 51.18 42.3699" stroke="#00008F" stroke-width="2" stroke-linecap="round" stroke-linejoin="round"/>
<path d="M47.3 34H46.7C45.7787 33.984 44.8886 34.3339 44.225 34.9732C43.5614 35.6124 43.1784 36.4888 43.16 37.41V41H50.84V37.42C50.8322 36.963 50.7344 36.512 50.5522 36.0928C50.3701 35.6736 50.1072 35.2943 49.7784 34.9767C49.4497 34.6591 49.0616 34.4094 48.6364 34.2418C48.2111 34.0743 47.757 33.9921 47.3 34V34Z" stroke="#00008F" stroke-width="2" stroke-linecap="round" stroke-linejoin="round"/>
<path d="M43.16 40.98H50.85V80H43.16V40.98Z" stroke="#00008F" stroke-width="2" stroke-linecap="round" stroke-linejoin="round"/>
</svg>

<svg width="96" height="96" viewBox="0 0 96 96" fill="none" xmlns="http://www.w3.org/2000/svg"><path d="M42.79 42.45a10.4 10.4 0 01-6.68-10.11c0-3.18 1.63-6.13 3.23-8.57a.56.56 0 01.48-.27.63.63 0 01.53.25c.27.36.52.75.76 1.14a8.76 8.76 0 002.67 2.95 14.52 14.52 0 015.46-13.75.69.69 0 01.64 0 .59.59 0 01.34.54c-.06 4.67 2 7.22 4 9.66 1.8 2.19 3.65 4.45 3.65 8.08a10.58 10.58 0 01-6.69 10" stroke="#00008F" stroke-width="2" stroke-linecap="round" stroke-linejoin="round"/><path d="M47.3 34h-.6a3.48 3.48 0 00-3.54 3.41V41h7.68v-3.58A3.478 3.478 0 0047.3 34v0z" stroke="#00008F" stroke-width="2" stroke-linecap="round" stroke-linejoin="round"/><path d="M43.16 40.98h7.69V80h-7.69V40.98z" stroke="#00008F" stroke-width="2" stroke-linecap="round" stroke-linejoin="round"/></svg>
